images/icon-calculator.svg

<svg width="64" height="64" viewBox="0 0 64 64" fill="none" xmlns="http://www.w3.org/2000/svg">
<path d="M64 0V41.25L60.25 45.125H3.75L0 41.25V0H64Z" fill="#474F54"/>
<path d="M64 0V41.25L60.25 45.125H32V0H64Z" fill="#32393F"/>
<path d="M22.625 50.875H41.375V62.125H22.625V50.875Z" fill="#DADAE5"/>
<path d="M32 50.875H41.375V62.125H32V50.875Z" fill="#C9C9D3"/>
<path d="M0 41.25H64V52.75H0V41.25Z" fill="#EFEFF4"/>
<path d="M32 41.25H64V52.75H32V41.25Z" fill="#DADAE5"/>
<path d="M15.125 60.25H48.875V64H15.125V60.25Z" fill="#EFEFF4"/>
<path d="M32 60.25H48.875V64H32V60.25Z" fill="#DADAE5"/>
<path fill-rule="evenodd" clip-rule="evenodd" d="M7.625 20.625C7.625 13.3887 13.5137 7.5 20.75 7.5C27.9863 7.5 33.875 13.3887 33.875 20.625C33.875 27.8613 27.9863 33.75 20.75 33.75C13.5137 33.75 7.625 27.8613 7.625 20.625ZM15.125 20.625C15.125 23.7266 17.6484 26.25 20.75 26.25C23.8516 26.25 26.375 23.7266 26.375 20.625C26.375 17.5234 23.8516 15 20.75 15C17.6484 15 15.125 17.5234 15.125 20.625Z" fill="#549EF2"/>
<path d="M45.125 7.5H56.5V11.25H45.125V7.5Z" fill="#549EF2"/>
<path d="M37.625 7.5H41.375V11.25H37.625V7.5Z" fill="#549EF2"/>
<path d="M45.125 22.5H56.5V26.25H45.125V22.5Z" fill="#549EF2"/>
<path d="M37.625 22.5H41.375V26.25H37.625V22.5Z" fill="#549EF2"/>
<path d="M37.625 15H56.5V18.75H37.625V15Z" fill="#549EF2"/>
<path d="M37.625 30H56.5V33.75H37.625V30Z" fill="#549EF2"/>
</svg>

<svg xmlns="http://www.w3.org/2000/svg" width="64" height="64"><g fill="none"><path fill="#474F54" d="M64 0v41.25l-3.75 3.875H3.75L0 41.25V0z"/><path fill="#32393F" d="M64 0v41.25l-3.75 3.875H32V0z"/><path fill="#DADAE5" d="M22.625 50.875h18.75v11.25h-18.75z"/><path fill="#C9C9D3" d="M32 50.875h9.375v11.25H32z"/><path fill="#EFEFF4" d="M0 41.25h64v11.5H0z"/><path fill="#DADAE5" d="M32 41.25h32v11.5H32z"/><path fill="#EFEFF4" d="M15.125 60.25h33.75V64h-33.75z"/><path fill="#DADAE5" d="M32 60.25h16.875V64H32z"/><path fill="#549EF2" d="M20.75 7.5c-7.236 0-13.125 5.889-13.125 13.125S13.514 33.75 20.75 33.75s13.125-5.889 13.125-13.125S27.986 7.5 20.75 7.5zm0 18.75a5.631 5.631 0 01-5.625-5.625A5.631 5.631 0 0120.75 15a5.631 5.631 0 015.625 5.625 5.631 5.631 0 01-5.625 5.625z"/><g fill="#377FD2"><path d="M45.125 7.5H56.5v3.75H45.125zM37.625 7.5h3.75v3.75h-3.75zM45.125 22.5H56.5v3.75H45.125zM37.625 22.5h3.75v3.75h-3.75zM37.625 15H56.5v3.75H37.625zM37.625 30H56.5v3.75H37.625z"/></g></g></svg>
